icons/linear-ele-nature-weather-moon-night-water.svg

<svg xmlns="http://www.w3.org/2000/svg" width="32px" height="32px" viewBox="0 0 32 32" version="1.1">
    <title>linear-ele-nature-weather-moon-night-water</title>
    <g id="linear-ele-nature-weather-moon-night-water" stroke-width="1" fill-rule="evenodd">
        <path d="M18,2 C19.4788164,2 20.9278313,2.22967115 22.3081305,2.67565437 C23.2315989,2.97403274 23.2314966,4.28059371 22.3079814,4.57882734 C17.3952987,6.16529517 14,10.7553159 14,16 C14,16.6795451 14.0570008,17.3481025 14.1669172,18.0005629 L12.142698,18.0006098 C12.0637391,17.4512256 12.0168476,16.8926361 12.0037764,16.3270347 L12,16 C12,11.0831686 14.5575494,6.6598744 18.5368978,4.1512678 L18.743,4.024 L18.4220628,4.00727264 L18,4 C11.372583,4 6,9.372583 6,16 C6,16.681707 6.05684471,17.3501372 6.16605266,18.0008423 L4.14189822,18.0008423 C4.04838549,17.347368 4,16.6793345 4,16 C4,8.2680135 10.2680135,2 18,2 Z M30,20 C30.5522847,20 31,20.4477153 31,21 C31,21.5522847 30.5522847,22 30,22 L2,22 C1.44771525,22 1,21.5522847 1,21 C1,20.4477153 1.44771525,20 2,20 L30,20 Z M17,24 C17.5522847,24 18,24.4477153 18,25 C18,25.5522847 17.5522847,26 17,26 L5,26 C4.44771525,26 4,25.5522847 4,25 C4,24.4477153 4.44771525,24 5,24 L17,24 Z M17,28 C17.5522847,28 18,28.4477153 18,29 C18,29.5522847 17.5522847,30 17,30 L10,30 C9.44771525,30 9,29.5522847 9,29 C9,28.4477153 9.44771525,28 10,28 L17,28 Z" id="&#24418;&#29366;" fill-rule="nonzero" />
    </g>
</svg>

<svg xmlns="http://www.w3.org/2000/svg" viewBox="0 0 32 32"><path fill="currentColor" d="M18 2c1.479 0 2.928.23 4.308.676.924.298.923 1.605 0 1.903A12.004 12.004 0 0 0 14.167 18h-2.024a14.042 14.042 0 0 1-.14-1.674L12 16c0-4.917 2.558-9.34 6.537-11.849l.206-.127-.32-.017L18 4C11.373 4 6 9.373 6 16c0 .682.057 1.35.166 2H4.142A14.119 14.119 0 0 1 4 16C4 8.268 10.268 2 18 2m12 18a1 1 0 0 1 0 2H2a1 1 0 0 1 0-2zm-13 4a1 1 0 0 1 0 2H5a1 1 0 0 1 0-2zm0 4a1 1 0 0 1 0 2h-7a1 1 0 0 1 0-2z"/></svg>
